src/images_karasa_jaga_svg/cmd/ko/lc_strikeout.svg

<svg height="24" width="24" xmlns="http://www.w3.org/2000/svg" xmlns:xlink="http://www.w3.org/1999/xlink"><linearGradient id="a" gradientUnits="userSpaceOnUse" x1="71.817216" x2="71.817216" y1="110.543075" y2="-5.818925"><stop offset="0" stop-color="#1c1c1c"/><stop offset=".5" stop-color="#888"/><stop offset="1"/></linearGradient><g transform="matrix(.171875 0 0 .171875 1.000155 .999845)"><path d="m54.892799 3.2812959v-2.79470843z" fill="#fff" fill-opacity=".756881"/><path d="m98.908219 11.636047-11.636719.001953-.000519 40.7267h11.636719zm-81.453919 11.638153v11.6362h47.125c-.135066 5.785893-.935638 9.16688-2.103241 17.4543h10.970704c1.405566-9.659681 1.800655-13.527606 1.605193-20.29805v-8.79245zm40.512513 46.5448c-5.852213 13.496739-20.137193 30.84325-40.837891 30.83267v10.47265c26.353093.0136 42.56611-13.288242 50.009766-30.627845.688896-1.604747 4.366487-9.047664 4.941171-10.677475zm29.304687 0v46.54165l11.636719-.002v-39.780144h17.453781v-6.759506z" fill="url(#a)" fill-rule="evenodd"/><rect fill="#010101" height="5.8181" rx="1.78422" ry="2.29502" width="104.7258" x="11.6362" y="58.1828"/></g></svg>

<?xml version="1.0" encoding="UTF-8" standalone="no"?>
<svg
   xmlns:dc="http://purl.org/dc/elements/1.1/"
   xmlns:cc="http://creativecommons.org/ns#"
   xmlns:rdf="http://www.w3.org/1999/02/22-rdf-syntax-ns#"
   xmlns:svg="http://www.w3.org/2000/svg"
   xmlns="http://www.w3.org/2000/svg"
   xmlns:xlink="http://www.w3.org/1999/xlink"
   xmlns:sodipodi="http://sodipodi.sourceforge.net/DTD/sodipodi-0.dtd"
   xmlns:inkscape="http://www.inkscape.org/namespaces/inkscape"
   height="128"
   width="128"
   version="1.1"
   id="svg21"
   sodipodi:docname="lc_strikeout.svg"
   inkscape:export-filename="/home/rizmut/Dokumen/Rizmut/Github/libreoffice-style-karasa-jaga/build/images_karasa_jaga/cmd/ko/lc_strikeout.png"
   inkscape:export-xdpi="16.5"
   inkscape:export-ydpi="16.5"
   inkscape:version="0.92.2 (unknown)">
  <metadata
     id="metadata27">
    <rdf:RDF>
      <cc:Work
         rdf:about="">
        <dc:format>image/svg+xml</dc:format>
        <dc:type
           rdf:resource="http://purl.org/dc/dcmitype/StillImage" />
        <dc:title />
      </cc:Work>
    </rdf:RDF>
  </metadata>
  <defs
     id="defs25" />
  <sodipodi:namedview
     pagecolor="#ffffff"
     bordercolor="#666666"
     borderopacity="1"
     objecttolerance="10"
     gridtolerance="10"
     guidetolerance="10"
     inkscape:pageopacity="0"
     inkscape:pageshadow="2"
     inkscape:window-width="1366"
     inkscape:window-height="706"
     id="namedview23"
     showgrid="true"
     inkscape:zoom="2.6074563"
     inkscape:cx="53.481565"
     inkscape:cy="71.173946"
     inkscape:window-x="0"
     inkscape:window-y="0"
     inkscape:window-maximized="1"
     inkscape:current-layer="svg21">
    <inkscape:grid
       type="xygrid"
       id="grid837"
       spacingx="5.8181"
       spacingy="5.8181"
       empspacing="1" />
  </sodipodi:namedview>
  <linearGradient
     id="a">
    <stop
       offset="0"
       stop-color="#1c1c1c"
       id="stop2" />
    <stop
       offset=".5"
       stop-color="#888"
       id="stop4" />
    <stop
       offset="1"
       id="stop6" />
  </linearGradient>
  <linearGradient
     id="b"
     gradientUnits="userSpaceOnUse"
     x1="-192.86826546846"
     x2="-199.26656152752"
     xlink:href="#a"
     y1="109.4493765047"
     y2="-18.51654357678" />
  <linearGradient
     id="c"
     gradientUnits="userSpaceOnUse"
     x1="69.8172"
     x2="69.8172"
     xlink:href="#a"
     y1="110.5457"
     y2="-5.8163"
     gradientTransform="translate(2.000016,-0.002625)" />
  <path
     d="m54.892799 3.2812959v-2.79470843z"
     fill="#fff"
     fill-opacity=".756881"
     id="path11" />
  <path
     d="M 98.908219,11.636047 87.2715,11.638 87.270981,52.3647 H 98.9077 Z M 17.4543,23.2742 v 11.6362 h 47.125 c -0.135066,5.785893 -0.935638,9.16688 -2.103241,17.4543 h 10.970704 c 1.405566,-9.659681 1.800655,-13.527606 1.605193,-20.29805 V 23.2742 Z M 57.966813,69.819 C 52.1146,83.315739 37.82962,100.66225 17.128922,100.65167 v 10.47265 c 26.353093,0.0136 42.56611,-13.288242 50.009766,-30.627845 0.688896,-1.604747 4.366487,-9.047664 4.941171,-10.677475 z m 29.304687,0 0,46.54165 11.636719,-0.002 V 76.578506 H 116.362 l 0,-6.759506 z"
     id="path17"
     style="fill:url(#c);fill-rule:evenodd"
     inkscape:connector-curvature="0"
     sodipodi:nodetypes="ccccccccccccccccsccccccccc" />
  <rect
     height="5.8180995"
     rx="1.78422"
     ry="2.2950201"
     width="104.7258"
     x="11.6362"
     y="58.1828"
     id="rect19"
     style="fill:#010101" />
</svg>
